; generated by PrusaSlicer 2.1.1 on 2022-07-14 at 15:03:30 UTC

; 

; external perimeters extrusion width = 0.45mm
; perimeters extrusion width = 0.45mm
; infill extrusion width = 0.45mm
; solid infill extrusion width = 0.45mm
; top infill extrusion width = 0.40mm
; first layer extrusion width = 0.42mm

M201 X9000 Y9000 Z500 E10000 ; sets maximum accelerations, mm/sec^2
M203 X500 Y500 Z12 E120 ; sets maximum feedrates, mm/sec
M204 P1500 R1500 T1500 ; sets acceleration (P, T) and retract acceleration (R), mm/sec^2
M205 X10.00 Y10.00 Z0.20 E2.50 ; sets the jerk limits, mm/sec
M205 S0 T0 ; sets the minimum extruding and travel feed rate, mm/sec
M107
M190 S60 ; set bed temperature and wait for it to be reached
M104 S200 ; set temperature
G28 ; home all axes
G1 Z5 F5000 ; lift nozzle
M109 S200 ; set temperature and wait for it to be reached
G21 ; set units to millimeters
G90 ; use absolute coordinates
M82 ; use absolute distances for extrusion
G92 E0
; Filament gcode
G1 Z0.300 F7800.000
G1 E-2.00000 F2400.00000
G92 E0
G1 X95.804 Y90.419 F7800.000
G1 E2.00000 F2400.00000
G1 F1800
G1 X96.409 Y89.836 E2.03728
G1 X97.088 Y89.339 E2.07457
G1 X97.827 Y88.940 E2.11185
G1 X98.614 Y88.645 E2.14914
G1 X99.434 Y88.459 E2.18642
G1 X100.364 Y88.385 E2.22778
G1 X121.392 Y88.385 E3.16050
G1 X122.377 Y88.465 E3.20431
G1 X123.341 Y88.703 E3.24838
G1 X124.256 Y89.092 E3.29246
G1 X125.091 Y89.619 E3.33626
G1 X125.831 Y90.273 E3.38007
G1 X126.458 Y91.036 E3.42387
G1 X126.958 Y91.895 E3.46794
G1 X127.312 Y92.817 E3.51175
G1 X132.964 Y114.390 E4.50091
G1 X133.307 Y116.158 E4.58081
G1 X133.512 Y118.068 E4.66601
G1 X133.564 Y119.526 E4.73073
G1 X133.506 Y121.184 E4.80433
G1 X133.333 Y122.792 E4.87602
G1 X133.071 Y124.256 E4.94200
G1 X132.548 Y126.263 E5.03400
G1 X131.521 Y128.964 E5.16217
G1 X130.682 Y130.626 E5.24475
G1 X129.706 Y132.211 E5.32732
G1 X127.926 Y134.524 E5.45675
G1 X126.647 Y135.868 E5.53906
G1 X125.255 Y137.104 E5.62164
G1 X122.883 Y138.805 E5.75107
G1 X121.249 Y139.734 E5.83446
G1 X119.792 Y140.419 E5.90589
G1 X118.433 Y140.945 E5.97050
G1 X116.655 Y141.495 E6.05308
G1 X114.817 Y141.895 E6.13648
G1 X111.941 Y142.213 E6.26482
G1 X110.061 Y142.226 E6.34821
G1 X108.211 Y142.080 E6.43052
G1 X105.342 Y141.550 E6.55995
G1 X103.568 Y141.027 E6.64198
G1 X102.007 Y140.430 E6.71613
G1 X100.526 Y139.736 E6.78864
G1 X99.079 Y138.925 E6.86224
G1 X97.857 Y138.121 E6.92713
G1 X96.209 Y136.847 E7.01950
G1 X95.106 Y135.850 E7.08547
G1 X93.957 Y134.652 E7.15908
G1 X92.914 Y133.393 E7.23159
G1 X91.964 Y132.063 E7.30410
G1 X91.101 Y130.646 E7.37770
G1 X90.419 Y129.324 E7.44368
G1 X89.707 Y127.670 E7.52354
G1 X89.224 Y126.263 E7.58951
G1 X88.699 Y124.242 E7.68215
G1 X88.284 Y121.378 E7.81050
G1 X88.210 Y119.671 E7.88627
G1 X88.274 Y117.835 E7.96776
G1 X88.494 Y115.992 E8.05006
G1 X88.810 Y114.382 E8.12284
G1 X94.535 Y92.580 E9.12265
G1 X94.858 Y91.805 E9.15993
G1 X95.284 Y91.080 E9.19722
G1 X95.767 Y90.466 E9.23184
G1 E7.23184 F2400.00000
G92 E0
G1 X101.965 Y98.642 F7800.000
G1 E2.00000 F2400.00000
G1 F1800
G1 X119.807 Y98.642 E2.79140
G1 X119.808 Y107.616 E3.18945
G1 X120.355 Y108.030 E3.21990
G1 X121.237 Y108.815 E3.27228
G1 X122.055 Y109.668 E3.32466
G1 X122.795 Y110.572 E3.37650
G1 X123.475 Y111.552 E3.42941
G1 X124.070 Y112.573 E3.48181
G1 X124.581 Y113.638 E3.53420
G1 X125.007 Y114.739 E3.58658
G1 X125.344 Y115.871 E3.63896
G1 X125.591 Y117.026 E3.69135
G1 X125.745 Y118.197 E3.74373
G1 X125.806 Y119.364 E3.79557
G1 X125.775 Y120.556 E3.84848
G1 X125.650 Y121.731 E3.90088
G1 X125.432 Y122.892 E3.95326
G1 X125.123 Y124.032 E4.00565
G1 X124.729 Y125.132 E4.05749
G1 X124.241 Y126.220 E4.11040
G1 X123.672 Y127.256 E4.16280
G1 X123.024 Y128.243 E4.21518
G1 X122.299 Y129.176 E4.26756
G1 X121.503 Y130.048 E4.31995
G1 X120.641 Y130.855 E4.37233
G1 X119.727 Y131.583 E4.42417
G1 X118.739 Y132.252 E4.47708
G1 X117.710 Y132.833 E4.52948
G1 X116.639 Y133.331 E4.58186
G1 X115.532 Y133.743 E4.63425
G1 X114.397 Y134.066 E4.68663
G1 X113.251 Y134.296 E4.73847
G1 X112.066 Y134.438 E4.79138
G1 X110.886 Y134.485 E4.84378
G1 X109.706 Y134.438 E4.89616
G1 X108.533 Y134.298 E4.94855
G1 X107.375 Y134.066 E5.00093
G1 X106.251 Y133.746 E5.05277
G1 X105.133 Y133.331 E5.10568
G1 X104.061 Y132.833 E5.15808
G1 X103.033 Y132.252 E5.21046
G1 X102.055 Y131.591 E5.26285
G1 X101.141 Y130.862 E5.31469
G1 X100.269 Y130.048 E5.36759
G1 X99.473 Y129.175 E5.41999
G1 X98.748 Y128.243 E5.47238
G1 X98.106 Y127.266 E5.52422
G1 X97.532 Y126.221 E5.57713
G1 X97.047 Y125.143 E5.62953
G1 X96.649 Y124.031 E5.68191
G1 X96.340 Y122.891 E5.73429
G1 X96.122 Y121.731 E5.78668
G1 X95.998 Y120.568 E5.83852
G1 X95.965 Y119.376 E5.89143
G1 X96.027 Y118.196 E5.94383
G1 X96.181 Y117.025 E5.99621
G1 X96.428 Y115.870 E6.04859
G1 X96.765 Y114.739 E6.10098
G1 X97.187 Y113.648 E6.15282
G1 X97.703 Y112.573 E6.20573
G1 X98.297 Y111.552 E6.25813
G1 X98.970 Y110.581 E6.31051
G1 X99.717 Y109.667 E6.36289
G1 X100.527 Y108.824 E6.41473
G1 X101.417 Y108.030 E6.46764
G1 X101.965 Y107.616 E6.49810
G1 X101.965 Y98.702 E6.89348
G1 X102.320 Y98.997 F7800.000
G1 F1800
G1 X119.452 Y98.997 E7.65333
G1 X119.452 Y107.793 E8.04346
G1 X120.129 Y108.305 E8.08112
G1 X120.991 Y109.072 E8.13226
G1 X121.789 Y109.904 E8.18339
G1 X122.511 Y110.787 E8.23399
G1 X123.175 Y111.743 E8.28565
G1 X123.755 Y112.740 E8.33679
G1 X124.254 Y113.779 E8.38793
G1 X124.670 Y114.854 E8.43906
G1 X124.999 Y115.959 E8.49019
G1 X125.240 Y117.086 E8.54133
G1 X125.391 Y118.229 E8.59246
G1 X125.450 Y119.369 E8.64306
G1 X125.420 Y120.533 E8.69472
G1 X125.298 Y121.679 E8.74586
G1 X125.085 Y122.812 E8.79700
G1 X124.784 Y123.925 E8.84813
G1 X124.399 Y124.999 E8.89873
G1 X123.922 Y126.062 E8.95039
G1 X123.367 Y127.072 E9.00153
G1 X122.734 Y128.036 E9.05267
G1 X122.027 Y128.946 E9.10380
G1 X121.250 Y129.798 E9.15493
G1 X120.408 Y130.586 E9.20607
G1 X119.516 Y131.297 E9.25667
G1 X118.551 Y131.949 E9.30832
G1 X117.547 Y132.517 E9.35947
G1 X116.502 Y133.003 E9.41060
G1 X115.422 Y133.405 E9.46174
G1 X114.313 Y133.720 E9.51287
G1 X113.194 Y133.944 E9.56347
G1 X112.038 Y134.083 E9.61513
G1 X110.886 Y134.129 E9.66627
G1 X109.734 Y134.083 E9.71741
G1 X108.589 Y133.947 E9.76854
G1 X107.459 Y133.720 E9.81968
G1 X106.362 Y133.408 E9.87027
G1 X105.270 Y133.003 E9.92193
G1 X104.224 Y132.516 E9.97308
G1 X103.221 Y131.949 E10.02421
G1 X102.265 Y131.304 E10.07534
G1 X101.373 Y130.593 E10.12594
G1 X100.522 Y129.798 E10.17760
G1 X99.745 Y128.946 E10.22875
G1 X99.038 Y128.036 E10.27988
G1 X98.411 Y127.082 E10.33048
G1 X97.850 Y126.062 E10.38214
G1 X97.377 Y125.010 E10.43328
G1 X96.988 Y123.925 E10.48441
G1 X96.687 Y122.812 E10.53555
G1 X96.474 Y121.679 E10.58668
G1 X96.354 Y120.545 E10.63728
G1 X96.321 Y119.380 E10.68894
G1 X96.381 Y118.229 E10.74008
G1 X96.532 Y117.086 E10.79122
G1 X96.773 Y115.959 E10.84235
G1 X97.102 Y114.854 E10.89349
G1 X97.513 Y113.790 E10.94408
G1 X98.017 Y112.739 E10.99574
G1 X98.597 Y111.743 E11.04689
G1 X99.254 Y110.796 E11.09802
G1 X99.984 Y109.903 E11.14916
G1 X100.774 Y109.080 E11.19975
G1 X101.643 Y108.305 E11.25141
G1 X102.320 Y107.793 E11.28909
G1 X102.320 Y99.057 E11.67654
G1 X102.676 Y99.353 F7800.000
G1 F1800
G1 X119.096 Y99.353 E12.40484
G1 X119.096 Y107.970 E12.78703
G1 X119.903 Y108.580 E12.83192
G1 X120.744 Y109.328 E12.88180
G1 X121.522 Y110.140 E12.93169
G1 X122.227 Y111.001 E12.98104
G1 X122.875 Y111.934 E13.03145
G1 X123.441 Y112.906 E13.08134
G1 X123.928 Y113.920 E13.13123
G1 X124.333 Y114.969 E13.18111
G1 X124.654 Y116.047 E13.23100
G1 X124.889 Y117.147 E13.28088
G1 X125.037 Y118.262 E13.33076
G1 X125.094 Y119.373 E13.38012
G1 X125.065 Y120.509 E13.43053
G1 X124.945 Y121.628 E13.48042
G1 X124.738 Y122.733 E13.53030
G1 X124.444 Y123.819 E13.58019
G1 X124.069 Y124.866 E13.62954
G1 X123.603 Y125.903 E13.67995
G1 X123.062 Y126.889 E13.72984
G1 X122.445 Y127.829 E13.77972
G1 X121.755 Y128.717 E13.82961
G1 X120.997 Y129.548 E13.87949
G1 X120.175 Y130.316 E13.92938
G1 X119.305 Y131.010 E13.97873
G1 X118.364 Y131.647 E14.02914
G1 X117.385 Y132.200 E14.07903
G1 X116.365 Y132.674 E14.12892
G1 X115.311 Y133.067 E14.17880
G1 X114.229 Y133.374 E14.22869
G1 X113.138 Y133.593 E14.27804
G1 X112.010 Y133.729 E14.32845
G1 X110.886 Y133.773 E14.37834
G1 X109.762 Y133.729 E14.42822
G1 X108.645 Y133.595 E14.47811
G1 X107.543 Y133.374 E14.52799
G1 X106.472 Y133.070 E14.57735
G1 X105.407 Y132.674 E14.62776
G1 X104.387 Y132.200 E14.67765
G1 X103.408 Y131.646 E14.72753
G1 X102.476 Y131.017 E14.77742
G1 X101.606 Y130.324 E14.82677
G1 X100.775 Y129.548 E14.87718
G1 X100.017 Y128.717 E14.92707
G1 X99.327 Y127.829 E14.97695
G1 X98.716 Y126.899 E15.02631
G1 X98.169 Y125.903 E15.07672
G1 X97.707 Y124.877 E15.12661
G1 X97.328 Y123.818 E15.17649
G1 X97.034 Y122.733 E15.22638
G1 X96.827 Y121.627 E15.27626
G1 X96.709 Y120.521 E15.32561
G1 X96.677 Y119.385 E15.37602
G1 X96.736 Y118.261 E15.42591
G1 X96.883 Y117.146 E15.47580
G1 X97.118 Y116.047 E15.52568
G1 X97.439 Y114.969 E15.57557
G1 X97.840 Y113.931 E15.62492
G1 X98.332 Y112.906 E15.67533
G1 X98.897 Y111.934 E15.72522
G1 X99.538 Y111.010 E15.77511
G1 X100.250 Y110.139 E15.82499
G1 X101.021 Y109.336 E15.87434
G1 X101.869 Y108.580 E15.92475
G1 X102.676 Y107.969 E15.96964
G1 X102.676 Y99.413 E16.34916
G1 X102.688 Y98.953 F7800.000
G1 E14.34916 F2400.00000
G92 E0
G1 X101.307 Y107.249 F7800.000
G1 E2.00000 F2400.00000
G1 F1800
G1 X101.307 Y95.484 E2.52182
G1 X120.465 Y95.484 E3.37155
G1 X120.465 Y107.249 E3.89337
G1 X121.652 Y108.303 E3.96378
G1 X122.446 Y109.121 E4.01434
G1 X123.179 Y109.994 E4.06488
G1 X123.852 Y110.929 E4.11602
G1 X124.443 Y111.889 E4.16602
G1 X124.968 Y112.901 E4.21656
G1 X125.421 Y113.960 E4.26769
G1 X125.789 Y115.026 E4.31769
G1 X126.081 Y116.128 E4.36825
G1 X126.291 Y117.248 E4.41881
G1 X126.419 Y118.381 E4.46937
G1 X126.464 Y119.520 E4.51993
G1 X126.426 Y120.659 E4.57049
G1 X126.304 Y121.793 E4.62105
G1 X126.099 Y122.914 E4.67161
G1 X125.814 Y124.018 E4.72217
G1 X125.448 Y125.097 E4.77273
G1 X125.004 Y126.147 E4.82329
G1 X124.485 Y127.162 E4.87383
G1 X123.886 Y128.146 E4.92497
G1 X123.231 Y129.064 E4.97497
G1 X122.504 Y129.941 E5.02553
G1 X121.714 Y130.763 E5.07609
G1 X120.866 Y131.525 E5.12665
G1 X119.964 Y132.223 E5.17721
G1 X119.014 Y132.853 E5.22776
G1 X118.021 Y133.411 E5.27832
G1 X116.989 Y133.896 E5.32888
G1 X115.924 Y134.304 E5.37944
G1 X114.833 Y134.633 E5.43000
G1 X113.721 Y134.881 E5.48055
G1 X112.580 Y135.048 E5.53168
G1 X111.456 Y135.131 E5.58168
G1 X110.316 Y135.131 E5.63224
G1 X109.179 Y135.047 E5.68280
G1 X108.052 Y134.881 E5.73336
G1 X106.939 Y134.633 E5.78392
G1 X105.848 Y134.304 E5.83448
G1 X104.784 Y133.896 E5.88502
G1 X103.741 Y133.405 E5.93615
G1 X102.758 Y132.853 E5.98615
G1 X101.808 Y132.223 E6.03671
G1 X100.907 Y131.525 E6.08727
G1 X100.059 Y130.763 E6.13783
G1 X99.269 Y129.941 E6.18839
G1 X98.541 Y129.064 E6.23894
G1 X97.873 Y128.125 E6.29007
G1 X97.287 Y127.162 E6.34007
G1 X96.768 Y126.147 E6.39061
G1 X96.320 Y125.085 E6.44175
G1 X95.958 Y124.018 E6.49175
G1 X95.673 Y122.914 E6.54231
G1 X95.468 Y121.793 E6.59287
G1 X95.347 Y120.659 E6.64343
G1 X95.308 Y119.520 E6.69397
G1 X95.354 Y118.368 E6.74510
G1 X95.481 Y117.248 E6.79510
G1 X95.691 Y116.128 E6.84566
G1 X95.983 Y115.026 E6.89622
G1 X96.355 Y113.949 E6.94678
G1 X96.804 Y112.901 E6.99734
G1 X97.329 Y111.889 E7.04790
G1 X97.927 Y110.918 E7.09846
G1 X98.593 Y109.994 E7.14900
G1 X99.335 Y109.112 E7.20013
G1 X100.121 Y108.303 E7.25014
G1 X101.262 Y107.289 E7.31789
G1 X100.952 Y107.089 F7800.000
G1 F1800
G1 X100.952 Y95.129 E7.84839
G1 X120.820 Y95.129 E8.72967
G1 X120.820 Y107.089 E9.26018
G1 X121.897 Y108.046 E9.32408
G1 X122.710 Y108.882 E9.37580
G1 X123.459 Y109.775 E9.42750
G1 X124.148 Y110.732 E9.47979
G1 X124.753 Y111.714 E9.53094
G1 X125.289 Y112.749 E9.58264
G1 X125.753 Y113.832 E9.63493
G1 X126.129 Y114.922 E9.68608
G1 X126.428 Y116.050 E9.73779
G1 X126.643 Y117.195 E9.78951
G1 X126.774 Y118.354 E9.84122
G1 X126.820 Y119.519 E9.89294
G1 X126.781 Y120.684 E9.94465
G1 X126.656 Y121.844 E9.99637
G1 X126.447 Y122.991 E10.04808
G1 X126.155 Y124.119 E10.09980
G1 X125.781 Y125.224 E10.15151
G1 X125.327 Y126.298 E10.20322
G1 X124.796 Y127.335 E10.25493
G1 X124.183 Y128.342 E10.30722
G1 X123.513 Y129.281 E10.35837
G1 X122.769 Y130.179 E10.41008
G1 X121.961 Y131.019 E10.46180
G1 X121.094 Y131.798 E10.51351
G1 X120.172 Y132.512 E10.56522
G1 X119.200 Y133.156 E10.61694
G1 X118.184 Y133.728 E10.66865
G1 X117.128 Y134.223 E10.72037
G1 X116.040 Y134.641 E10.77208
G1 X114.923 Y134.977 E10.82380
G1 X113.785 Y135.231 E10.87550
G1 X112.619 Y135.402 E10.92779
G1 X111.469 Y135.486 E10.97894
G1 X110.303 Y135.486 E11.03065
G1 X109.140 Y135.401 E11.08237
G1 X107.987 Y135.231 E11.13408
G1 X106.849 Y134.977 E11.18580
G1 X105.733 Y134.641 E11.23751
G1 X104.644 Y134.223 E11.28922
G1 X103.577 Y133.721 E11.34150
G1 X102.572 Y133.156 E11.39265
G1 X101.601 Y132.512 E11.44437
G1 X100.679 Y131.798 E11.49608
G1 X99.811 Y131.019 E11.54780
G1 X99.003 Y130.179 E11.59951
G1 X98.259 Y129.281 E11.65122
G1 X97.575 Y128.321 E11.70350
G1 X96.976 Y127.335 E11.75465
G1 X96.445 Y126.298 E11.80636
G1 X95.987 Y125.212 E11.85864
G1 X95.617 Y124.119 E11.90979
G1 X95.325 Y122.991 E11.96151
G1 X95.116 Y121.844 E12.01322
G1 X94.992 Y120.684 E12.06494
G1 X94.952 Y119.519 E12.11664
G1 X94.999 Y118.341 E12.16893
G1 X95.129 Y117.195 E12.22008
G1 X95.344 Y116.050 E12.27179
G1 X95.643 Y114.922 E12.32351
G1 X96.023 Y113.820 E12.37522
G1 X96.483 Y112.749 E12.42694
G1 X97.019 Y111.714 E12.47865
G1 X97.630 Y110.721 E12.53037
G1 X98.312 Y109.775 E12.58207
G1 X99.071 Y108.873 E12.63436
G1 X99.875 Y108.046 E12.68551
G1 X100.907 Y107.129 E12.74675
G1 X100.596 Y106.929 F7800.000
G1 F1800
G1 X100.596 Y94.773 E13.28595
G1 X121.176 Y94.773 E14.19877
G1 X121.176 Y106.929 E14.73796
G1 X122.143 Y107.789 E14.79536
G1 X122.974 Y108.643 E14.84823
G1 X123.740 Y109.557 E14.90109
G1 X124.444 Y110.534 E14.95454
G1 X125.062 Y111.539 E15.00683
G1 X125.611 Y112.597 E15.05970
G1 X126.085 Y113.704 E15.11314
G1 X126.470 Y114.819 E15.16544
G1 X126.775 Y115.971 E15.21831
G1 X126.995 Y117.143 E15.27118
G1 X127.129 Y118.327 E15.32405
G1 X127.176 Y119.518 E15.37692
G1 X127.136 Y120.709 E15.42979
G1 X127.008 Y121.894 E15.48266
G1 X126.795 Y123.067 E15.53553
G1 X126.496 Y124.221 E15.58840
G1 X126.113 Y125.350 E15.64127
G1 X125.649 Y126.448 E15.69414
G1 X125.106 Y127.509 E15.74700
G1 X124.480 Y128.538 E15.80044
G1 X123.795 Y129.498 E15.85274
G1 X123.034 Y130.416 E15.90561
G1 X122.208 Y131.275 E15.95848
G1 X121.321 Y132.071 E16.01135
G1 X120.379 Y132.801 E16.06422
G1 X119.385 Y133.460 E16.11709
G1 X118.347 Y134.044 E16.16996
G1 X117.268 Y134.551 E16.22283
G1 X116.155 Y134.977 E16.27570
G1 X115.013 Y135.321 E16.32857
G1 X113.850 Y135.581 E16.38143
G1 X112.658 Y135.756 E16.43487
G1 X111.482 Y135.842 E16.48717
G1 X110.290 Y135.842 E16.54004
G1 X109.101 Y135.755 E16.59291
G1 X107.922 Y135.581 E16.64578
G1 X106.759 Y135.321 E16.69865
G1 X105.617 Y134.977 E16.75152
G1 X104.505 Y134.551 E16.80439
G1 X103.414 Y134.038 E16.85783
G1 X102.387 Y133.460 E16.91013
G1 X101.393 Y132.801 E16.96300
G1 X100.451 Y132.071 E17.01587
G1 X99.564 Y131.275 E17.06874
G1 X98.738 Y130.416 E17.12161
G1 X97.977 Y129.498 E17.17447
G1 X97.278 Y128.517 E17.22791
G1 X96.666 Y127.509 E17.28021
G1 X96.123 Y126.448 E17.33308
G1 X95.655 Y125.338 E17.38652
G1 X95.276 Y124.221 E17.43882
G1 X94.978 Y123.067 E17.49169
G1 X94.764 Y121.894 E17.54456
G1 X94.637 Y120.709 E17.59743
G1 X94.596 Y119.518 E17.65029
G1 X94.645 Y118.314 E17.70373
G1 X94.777 Y117.143 E17.75603
G1 X94.997 Y115.971 E17.80890
G1 X95.302 Y114.819 E17.86177
G1 X95.691 Y113.692 E17.91464
G1 X96.161 Y112.597 E17.96751
G1 X96.710 Y111.539 E18.02038
G1 X97.334 Y110.523 E18.07325
G1 X98.032 Y109.557 E18.12612
G1 X98.807 Y108.634 E18.17956
G1 X99.629 Y107.789 E18.23186
G1 X100.551 Y106.969 E18.28659
G1 X100.983 Y106.829 F7800.000
G1 X101.213 Y107.772
G1 F1800
G1 X101.204 Y107.780 E18.28705
G1 X100.348 Y108.541 E18.33034
G1 X100.304 Y108.584 E18.33267
G1 X100.295 Y108.592 E18.33311
G1 X99.580 Y109.333 E18.37230
G1 X99.478 Y109.447 E18.37812
